svg/emoji_u1f53b.svg

<svg enable-background="new 0 0 128 128" viewBox="0 0 128 128" xmlns="http://www.w3.org/2000/svg"><linearGradient id="a" x1="64" x2="64" y1="36" y2="91.637" gradientUnits="userSpaceOnUse"><stop stop-color="#EF5350" offset="0"/><stop stop-color="#E0403E" offset=".5777"/><stop stop-color="#D32F2F" offset="1"/></linearGradient><path d="m60.66 89.94-28-48.53c-1.24-2.49 0.56-5.41 3.34-5.41h56c2.78 0 4.58 2.92 3.34 5.4l-28 48.53c-1.37 2.76-5.3 2.76-6.68 0.01z" fill="url(#a)"/><g opacity=".2"><path d="m92 39c0.34 0 0.53 0.19 0.62 0.35 0.09 0.15 0.17 0.38 0.06 0.66l-27.94 48.43-0.08 0.16c-0.17 0.33-0.45 0.4-0.66 0.4s-0.49-0.07-0.66-0.41l-0.08-0.16-27.94-48.42c-0.12-0.28-0.04-0.51 0.06-0.66 0.09-0.16 0.28-0.35 0.62-0.35h56m0-3h-56c-2.78 0-4.58 2.92-3.34 5.4l28 48.53c0.69 1.38 2.02 2.07 3.34 2.07 1.33 0 2.65-0.69 3.34-2.06l28-48.53c1.24-2.49-0.56-5.41-3.34-5.41z" fill="#424242"/></g></svg>

<svg width="128" height="128" style="enable-background:new 0 0 128 128;" xmlns="http://www.w3.org/2000/svg" xmlns:xlink="http://www.w3.org/1999/xlink">
  <g>
    <linearGradient id="SVGID_1_" gradientUnits="userSpaceOnUse" x1="64" x2="64" y1="36" y2="91.6374">
      <stop offset="0" style="stop-color:#EF5350"/>
      <stop offset="0.5777" style="stop-color:#E0403E"/>
      <stop offset="1" style="stop-color:#D32F2F"/>
    </linearGradient>
    <path d="M60.66,89.94l-28-48.53C31.42,38.92,33.22,36,36,36h56c2.78,0,4.58,2.92,3.34,5.4l-28,48.53 C65.97,92.69,62.04,92.69,60.66,89.94z" style="fill:url(#SVGID_1_);"/>
    <g style="opacity:0.2;">
      <path d="M92,39c0.34,0,0.53,0.19,0.62,0.35c0.09,0.15,0.17,0.38,0.06,0.66L64.74,88.44l-0.04,0.08 l-0.04,0.08C64.49,88.93,64.21,89,64,89c-0.21,0-0.49-0.07-0.66-0.41l-0.04-0.08l-0.04-0.08L35.32,40.01 c-0.12-0.28-0.04-0.51,0.06-0.66C35.47,39.19,35.66,39,36,39H92 M92,36H36c-2.78,0-4.58,2.92-3.34,5.4l28,48.53 C61.35,91.31,62.68,92,64,92c1.33,0,2.65-0.69,3.34-2.06l28-48.53C96.58,38.92,94.78,36,92,36L92,36z" style="fill:#424242;"/>
    </g>
  </g>
</svg>
